X: 506
T: Trallpolska
O: Jämtland
C: Kristian Oskarsson
R: Pols
Z: Håkan Lidén, 2008-11-21
M: 3/4
L: 1/8
K: A
B | B>B (3BcB G>B | (3:2:4 A2 c2 ec A>c | e>a f>e d>c | B>A G>A (3BAG | (3A2 c2 A2 E>B |
B>B (3BcB G>B | (3:2:4 A2 c2 ec A>c | e>a f>e d>c | B>A G>A (3BAG | A2 A3 :|
|: e | (3e2 a2 e2 c>d | (3efe (3ded c>d | e>f f<e c>d | (3efe (3dcB A2 | 
(3e2 a2 e2 c>d | (3efe (3ded c>A | B>c (3dBd (3cAc | (3BGB A3 :|]
(:musicend:)
Alternativ sistarad börjar:
(:music:)
